X:1
T:A minor                 Jeremiah Ingalls, 1805
T:Bernard of Cluny, 1145 Translated by J. M. Neale, 1858          76. 76.
T:Happy Retribution
T:Transcribed from Ingalls' Christian Harmony , 1805 ; Counter by B. C. Johnston, 2017.
%%score [ 1 2 3 4 ]
L:1/8
Q:1/4=130
M:4/4
K:C
V:1 treble nm="Tr." snm="Tr."
V:2 treble nm="C." snm="C."
V:3 treble-8 nm="T." snm="T."
V:4 bass nm="B." snm="B."
V:1
"^1. Brief life  is  here  our  portion,  Brief sorrow, short-lived care;      The  life  that  knows  no ending,   The   tearless  life    is     there.      O" A4 | %1
 c2 ^G2 A2 B2 | c4 c2 B2 | A2 c2 B2 A2 | ^G6 E2 | A2 ^G2 A2 B2 | c4 c2 d2 | e2 A2 B2 ^G2 | A6 ^G2 | %9
"^1. hap –  py  re – tri  – bu – tion,    Short  toil,  e – ter – nal    rest;      For  mor–tals  and  for  sin–ners     A  mansion  with  the  blest." A2 dc B2 B2 | %10
 c4 c2 B2 | c2 e2 d2 c2 | B6 E2 | A2 ^G2 A2 B2 | c4 c2 d2 | e2 A2 B2 ^G2 | A8 |] %17
V:2
"^2. There  grief  is turned to pleasure,   Such   pleasure  as  below       No  human  voice  can  utter,   No   human  heart   can    know.       But" A4 | %1
 A2 B2 c2 d2 | c4 A2 B2 | c2 c2 d2 c2 | B6 ^G2 | A2 B2 c2 d2 | c4 A2 d2 | c2 A2 B2 ^G2 | A6 B2 | %9
"^2. he  whom  now  we  trust  in   Shall   then be seen  and    known,  And they that know and see him,   Shall have him for their own." c2 GA B2 ^G2 | %10
 A4 A2 B2 | c2 A2 d2 c2 | B6 ^G2 | A2 B2 c2 d2 | c4 c2 B2 | c2 A2 B2 ^G2 | A8 |] %17
V:3
"^3.  The  morning  shall   a –wa –ken,  The  shadows  shall  decay,     And   each  true-hearted servant    Shall  shine as doth the day.     Then" A4 | %1
 A2 B2 c2 d2 | e4 e2 d2 | c2 A2 d2 c2 | B6 E2 | A2 B2 c2 d2 | e4 e2 d2 | c2 A2 G2 B2 | A6 B2 | %9
"^3. all   the   halls    of    Zi  – on    Shall   sure  – ly  be  com – plete,     And   in    the  land  of   beau–ty,    All   things   of  beauty  meet." c2 d2 e2 ^g2 | %10
 a4 a2 ^g2 | a2 e2 d2 cd | e6 E2 | A2 B2 c2 d2 | e4 e2 d2 | c2 A2 G2 B2 | A8 |] %17
V:4
 A,4 | A,2 E,2 A,2 G,2 | C,4 C,2 B,,2 | A,,2 A,2 G,2 A,2 | E,6 E,2 | A,,2 E,2 A,2 G,2 | %6
 C,4 C,2 B,,2 | A,,2 D,2 E,2 E,2 | A,,6 E,2 | %9
"^____________________________________________________________________\nOriginally titled \nThe Heavenly Courtier\n  by Jeremiah Ingalls in 1805, with different words.  \nResembles an old Irish folk tune (Jackson 1953b, no. 325).\nEdited by B. C. Johnston, 2017. These words substituted, composition re-titled, Counter part written." A,2 G,2 E,2 E,2 | %10
 A,4 A,2 E,2 | A,2 C2 G,2 A,2 | E,6 E,2 | A,,2 E,2 A,2 G,2 | C4 C2 B,2 | A,2 D,2 E,2 E,2 | A,,8 |] %17

